packages/foundations/assets/icons/functional/images/transportation/electric_scooter_24.svg

<svg width="24" height="24" viewBox="0 0 24 24" fill="none" xmlns="http://www.w3.org/2000/svg">
<g clip-path="url(#clip0_187_973)">
<path fill-rule="evenodd" clip-rule="evenodd" d="M18.7264 3.2697L16.7061 3.67341C15.9509 3.82432 15.4407 4.51864 15.5053 5.27098L16.5978 11.3248C15.1125 12.371 14.1464 13.3574 13.7006 14.3357C13.3604 15.0822 13.1447 15.8883 13.052 16.7504L7.82935 16.7503C7.41759 15.585 6.30643 14.7503 5 14.7503C3.3435 14.7503 2 16.0934 2 17.7503C2 19.4072 3.3435 20.7503 5 20.7503C6.30643 20.7503 7.41759 19.9156 7.82935 18.7503L13.9996 18.7503C14.5519 18.7503 14.9996 18.3026 14.9996 17.7503C14.9996 16.7832 15.1745 15.9245 15.5206 15.165C15.7311 14.703 16.2231 14.1486 16.9972 13.525L17.3148 15.2681C16.5213 15.8079 16 16.7182 16 17.7503C16 19.4072 17.3435 20.7503 19 20.7503C20.6571 20.7503 22 19.4074 22 17.7503C22 16.1798 20.7937 14.8914 19.2569 14.7612L17.5808 5.53831L19.1183 5.23092C19.6212 5.13043 20.0235 4.58713 19.903 4.05435C19.7824 3.52158 19.2769 3.15876 18.7264 3.2697ZM19 16.7503C19.5525 16.7503 20 17.1978 20 17.7503C20 18.3028 19.5525 18.7503 19 18.7503C18.4479 18.7503 18 18.3025 18 17.7503C18 17.1981 18.4479 16.7503 19 16.7503ZM5 16.7503C5.55252 16.7503 6 17.1978 6 17.7503C6 18.3028 5.55252 18.7503 5 18.7503C4.44795 18.7503 4 18.3025 4 17.7503C4 17.1981 4.44795 16.7503 5 16.7503ZM3.9998 10.7504C3.44752 10.7504 2.9998 11.1981 2.9998 11.7504C2.9998 12.3026 3.44752 12.7504 3.9998 12.7504C5.43671 12.7504 6.67404 13.4419 7.13052 14.2447C7.40351 14.7248 8.01402 14.8926 8.49411 14.6196C8.9742 14.3466 9.14209 13.7361 8.86909 13.256C8.0504 11.8163 6.14318 10.7504 3.9998 10.7504Z" fill="#1A1C1F"/>
</g>
<defs>
<clipPath id="clip0_187_973">
<rect width="24" height="24" fill="white"/>
</clipPath>
</defs>
</svg>

<svg xmlns="http://www.w3.org/2000/svg" width="24" height="24" fill="none"><g clip-path="url(#a)"><path fill="#1A1C1F" fill-rule="evenodd" d="m18.726 3.27-2.02.403a1.5 1.5 0 0 0-1.2 1.598l1.092 6.054c-1.485 1.046-2.452 2.032-2.897 3.01a7.8 7.8 0 0 0-.649 2.415H7.829a3 3 0 1 0 0 2H14a1 1 0 0 0 1-1c0-.967.175-1.825.522-2.585.21-.462.702-1.016 1.476-1.64l.318 1.743a3 3 0 1 0 1.942-.507L17.58 5.538l1.537-.307c.503-.1.906-.644.785-1.177-.12-.532-.626-.895-1.177-.784M19 16.75a1 1 0 1 1 0 2 1 1 0 0 1 0-2m-14 0a1 1 0 1 1 0 2 1 1 0 0 1 0-2m-1-6a1 1 0 1 0 0 2c1.437 0 2.674.692 3.13 1.495a1 1 0 1 0 1.74-.989C8.05 11.816 6.142 10.75 4 10.75" clip-rule="evenodd"/></g><defs><clipPath id="a"><path fill="#fff" d="M0 0h24v24H0z"/></clipPath></defs></svg>
